!! 00000] TT[WS
!!!OTL: Xin kaihua
!!!ARE: Asia, China, Shanxi Fenyang
!! Ethnic Group: Han
!! WII, 264 (1)
!!!SCT: J0794
!!!YEM: Copyright 1995, estate of Helmut Schaffrath.
**kern
*ICvox
*Ivox
*M2/4
*k[f#]
*G:
{8ee
8ee
8dd
8b
=1
8ee
8ee
4dd
=2
8ee
8ee
8dd
8ee
=3
8.cc
16b
4a}
=4
{8dd
16dd
16dd
8dd
8ee
=5
8a
8b
4g
=6
8f#
8e
4d}
=7
{8dd
8dd
8a
8b
=8
8.d
16e
8g
8a
=9
8f#
8e
4d}
==
!!!AGN: Xiaodiao. Xuanchuan, Xinminge
!!!ONB: ESAC (Essen Associative Code) Database: CHINA
!!!AMT: simple duple
!!!AIN: vox
!!!EED: Helmut Schaffrath
!!!EEV: 1.0
*-
